src/pos-icons/camera-front.svg

<svg height="24" viewBox="0 0 24 24" width="24" xmlns="http://www.w3.org/2000/svg"><path d="m7 2h10v10.5c0-1.67-3.33-2.5-5-2.5s-5 .83-5 2.5m10-12.5h-10a2 2 0 0 0 -2 2v14a2 2 0 0 0 2 2h10a2 2 0 0 0 2-2v-14a2 2 0 0 0 -2-2m-5 8a2 2 0 0 0 2-2 2 2 0 0 0 -2-2 2 2 0 0 0 -2 2 2 2 0 0 0 2 2m2 12v2h5v-2m-9 0h-5v2h5v2l3-3-3-3z"/></svg>

<?xml version="1.0" encoding="UTF-8"?><!DOCTYPE svg PUBLIC "-//W3C//DTD SVG 1.1//EN" "http://www.w3.org/Graphics/SVG/1.1/DTD/svg11.dtd"><svg xmlns="http://www.w3.org/2000/svg" xmlns:xlink="http://www.w3.org/1999/xlink" version="1.1" id="mdi-camera-front" width="24" height="24" viewBox="0 0 24 24"><path d="M7,2H17V12.5C17,10.83 13.67,10 12,10C10.33,10 7,10.83 7,12.5M17,0H7A2,2 0 0,0 5,2V16A2,2 0 0,0 7,18H17A2,2 0 0,0 19,16V2A2,2 0 0,0 17,0M12,8A2,2 0 0,0 14,6A2,2 0 0,0 12,4A2,2 0 0,0 10,6A2,2 0 0,0 12,8M14,20V22H19V20M10,20H5V22H10V24L13,21L10,18V20Z" /></svg>
